!!!ONR: No. 25
!! From Harold Courlander, "Haiti Singing"
!! Chapel Hill: University of North Carolina Press, 1939
!! Copyright University of North Carolina Press
!!!ENC: D. Huron
**kern
*clefG2
*k[f#]
*M2/4
=1-
4r
8r
8b
=
4dd
8ee
8ff#
=
4ee
8.ee
16b
=
8ee
8dd
8dd
8b
=
4.a
8b
=
4ee
8dd
8b
=
4a
[4a
=
2a]
=
8b
8dd
8.ee
16ff#
=
8ee
8ff#
8ee
8ff#
=
4dd
[4ee
=
4ee]
8b
8dd
=
4ee
8ff#
8ee
=
8ff#
8ee
8dd
8b
=
4.dd
8b
=
8ee
8dd
8dd
8b
=
4.a
8b
=
4ee
8dd
8b
=
4a
[4a
=
2a]
==
*-
